static/images/mobile/copyright/wikipedia-tagline-ja.svg

<?xml version="1.0" encoding="UTF-8"?>
<svg xmlns="http://www.w3.org/2000/svg" width="90" height="12" viewBox="0 0 90 12">
	<title>
		ja-tagline
	</title>
	<g id="Page-1" fill="none" fill-rule="evenodd" stroke="none" stroke-width="1">
		<path id="ja-tagline" fill="#000" fill-rule="nonzero" d="M44.894125,-2.7533531e-14 L45.538125,0.508 C45.993125,0.847 45.993125,1.016 45.538125,1.016 L40.021125,1.016 C39.710125,1.947 39.217125,2.87 38.544125,3.784 L43.165125,3.784 L43.557125,3.238 L43.721125,3.365 C44.159125,3.704 44.382125,3.924 44.390125,4.025 C44.398125,4.101 44.331125,4.169 44.188125,4.228 C44.129125,4.262 44.049125,4.295 43.948125,4.33 C43.940125,6.666 43.940125,8.955 43.948125,11.198 C43.956125,11.638 43.893125,11.892 43.759125,11.96 L43.746125,11.96 C43.704125,11.977 43.645125,11.985 43.569125,11.985 C43.308125,11.985 43.177125,11.829 43.177125,11.515 L43.190125,10.918 L43.190125,10.905 L37.332125,10.905 L37.332125,11.134 C37.332125,11.582 37.256125,11.836 37.105125,11.896 L37.092125,11.896 C37.050125,11.913 36.999125,11.921 36.941125,11.921 C36.680125,11.921 36.554125,11.765 36.562125,11.451 C36.587125,8.776 36.583125,6.039 36.549125,3.237 L37.635125,3.783 L38.506125,3.783 C38.893125,2.827 39.137125,1.938 39.238125,1.117 C39.246125,1.083 39.251125,1.05 39.251125,1.015 L34.770125,1.015 L34.454125,0.698 L44.402125,0.698 L44.894125,-2.7533531e-14 Z M80.589125,8.76 C81.271125,8.904 81.591125,9.077 81.548125,9.281 C81.497125,9.374 81.355125,9.475 81.118125,9.586 C80.261125,10.525 79.087125,11.304 77.597125,11.922 L77.345125,11.782 C79.103125,10.85 80.185125,9.843 80.589125,8.76 Z M53.398125,0.05 C53.675125,0.263 53.814125,0.432 53.814125,0.56 C53.789125,0.67 53.687125,0.747 53.511125,0.789 C53.157125,0.891 52.568125,0.984 51.743125,1.069 C51.743125,2.232 51.739125,3.078 51.729125,3.604 L52.600125,3.604 L53.092125,2.893 L53.750125,3.401 C53.959125,3.561 54.064125,3.686 54.064125,3.776 C54.064125,3.898 53.959125,3.96 53.750125,3.96 L51.729125,3.96 L51.729125,4.938 L51.730125,4.938 C52.673125,5.522 53.376125,6.216 53.839125,7.02 C53.941125,7.189 53.985125,7.316 53.978125,7.401 C53.953125,7.638 53.839125,7.756 53.636125,7.756 C53.275125,7.747 53.009125,7.519 52.841125,7.07 L52.513125,6.118 C52.363125,5.881 52.101125,5.601 51.730125,5.28 L51.7307314,7.30071362 C51.7324453,8.19825 51.737625,9.4755 51.744125,11.133 C51.744125,11.565 51.685125,11.815 51.566125,11.882 C51.507125,11.916 51.445125,11.929 51.377125,11.92 C51.117125,11.886 50.986125,11.73 50.986125,11.45 C50.994125,9.927 50.998125,8.285 50.998125,6.524 C50.477125,7.878 49.615125,9.025 48.410125,9.964 L48.197125,9.799 C49.828125,8.123 50.738125,6.177 50.924125,3.959 L48.500125,3.959 L48.197125,3.604 L50.998125,3.604 C50.990125,3.093 50.986125,2.277 50.986125,1.154 C50.187125,1.27 49.365125,1.35 48.525125,1.395 L48.410125,1.154 C51.103125,0.816 52.765125,0.448 53.398125,0.05 Z M84.868125,8.798 C86.348125,9.695 87.372125,10.419 87.936125,10.969 C88.280125,11.316 88.450125,11.566 88.440125,11.718 C88.432125,11.845 88.344125,11.912 88.176125,11.921 C87.822125,11.845 87.405125,11.549 86.926125,11.032 L86.106125,10.143 C85.754925,9.7774 85.376205,9.45852 84.966381,9.184824 L84.654,8.987 L84.868125,8.798 Z M57.727125,0.05 C58.467125,0.228 58.838125,0.409 58.838125,0.596 C58.828125,0.681 58.715125,0.79 58.496125,0.926 L58.496125,6.918 L58.496125,6.918 L59.152125,6.753 L59.468125,5.966 L60.212125,6.296 C60.489125,6.423 60.628125,6.528 60.628125,6.613 C60.628125,6.765 60.532125,6.867 60.339125,6.918 L58.495125,7.362 L58.495125,11.12 C58.495125,11.653 58.372125,11.92 58.130125,11.92 L58.118125,11.92 C57.856125,11.92 57.727125,11.764 57.727125,11.45 L57.739125,7.54 L54.331125,8.404 L54.331125,8.404 L54.079125,8.023 L57.739125,7.096 L57.727125,0.05 Z M68.343125,0.038 C69.068125,0.22 69.433125,0.401 69.443125,0.583 C69.443125,0.679 69.334125,0.795 69.115125,0.934 L69.115125,1.194 L72.965125,1.194 L73.457125,0.483 L74.113125,0.991 C74.342125,1.176 74.455125,1.315 74.455125,1.409 C74.455125,1.503 74.342125,1.55 74.113125,1.55 L69.115125,1.55 L69.115125,2.705 L71.324125,2.705 L71.703125,2.159 C72.174125,2.498 72.451125,2.759 72.535125,2.943 C72.476125,3.093 72.326125,3.194 72.082125,3.244 C72.072125,3.303 72.068125,3.374 72.068125,3.457 L72.107125,4.724 C72.107125,5.012 72.005125,5.181 71.802125,5.232 L71.778125,5.232 C71.508125,5.232 71.374125,5.05 71.374125,4.686 L69.114125,4.686 L69.114125,5.867 L72.118125,5.905 L72.472125,5.346 C72.968125,5.676 73.245125,5.943 73.306125,6.146 C73.296125,6.239 73.146125,6.336 72.851125,6.438 L72.837125,7.403 L73.431125,7.403 L73.923125,6.679 L74.568125,7.187 C74.787125,7.365 74.896125,7.5 74.896125,7.593 C74.896125,7.686 74.787125,7.741 74.568125,7.758 L72.838125,7.758 L72.838125,9.345 C72.838125,9.793 72.754125,10.027 72.586125,10.043 C72.240125,10.026 72.068125,9.831 72.068125,9.459 C72.068125,9.392 72.072125,9.319 72.082125,9.243 L69.115125,9.243 L69.115125,10.614 C69.115125,11.418 68.769125,11.849 68.080125,11.909 C67.986125,11.486 67.418125,11.156 66.375125,10.919 C66.375125,10.767 66.404125,10.674 66.463125,10.64 L67.852125,10.894 C67.920125,10.903 67.979125,10.907 68.030125,10.907 C68.239125,10.907 68.344125,10.809 68.344125,10.615 L68.344125,9.244 L64.418125,9.244 L64.104125,8.863 L68.344125,8.876 L68.344125,7.746 L62.903125,7.759 L62.600125,7.391 L68.344125,7.404 L68.344125,6.249 L64.418125,6.262 L64.104125,5.894 L68.344125,5.907 L68.344125,4.726 L65.985125,4.688 L65.997125,4.777 C65.997125,5.056 65.905125,5.213 65.720125,5.247 C65.677125,5.256 65.640125,5.26 65.607125,5.26 C65.371125,5.26 65.253125,5.086 65.253125,4.739 L65.278125,3.508 C65.278125,2.991 65.264125,2.539 65.239125,2.15 L66.350125,2.696 L68.358125,2.696 L68.358125,1.541 L63.307125,1.541 L63.004125,1.186 L68.343125,1.193 L68.343125,0.038 Z M16.893125,0.711 C17.238125,0.745 17.503125,0.796 17.688125,0.863 C17.873125,0.93 18.048125,1.037 18.212125,1.18 C18.376125,1.323 18.500125,1.436 18.585125,1.517 C18.669125,1.597 18.707125,1.679 18.698125,1.764 C18.689125,1.849 18.635125,1.91 18.534125,1.949 C18.433125,1.986 18.349125,2.215 18.282125,2.635 C18.215125,3.053 18.168125,3.566 18.143125,4.17 C18.118125,4.775 18.105125,5.434 18.105125,6.145 C18.105125,6.856 17.956125,7.499 17.657125,8.075 C17.358125,8.651 16.969125,9.161 16.490125,9.604 C16.010125,10.049 15.541125,10.396 15.082125,10.645 C14.623125,10.895 14.070125,11.147 13.422125,11.401 C13.220125,11.461 13.173125,11.418 13.283125,11.274 C13.923125,10.935 14.453125,10.614 14.874125,10.309 C15.295125,10.004 15.695125,9.636 16.073125,9.205 C16.452125,8.773 16.753125,8.304 16.976125,7.796 C17.199125,7.288 17.336125,6.692 17.386125,6.006 C17.437125,5.32 17.468125,4.479 17.481125,3.48 C17.494125,2.481 17.496125,1.906 17.487125,1.753 C17.478125,1.6 17.445125,1.45 17.386125,1.302 C17.327125,1.155 17.138125,1.033 16.818125,0.941 C16.708125,0.796 16.732125,0.72 16.893125,0.711 Z M8.247125,2.164 C8.444125,2.279 8.638125,2.416 8.828125,2.577 C9.018125,2.738 9.162125,2.86 9.264125,2.945 C9.366125,3.03 9.380125,3.114 9.308125,3.199 C9.237125,3.284 9.121125,3.337 8.961125,3.357 C8.801125,3.378 8.704125,3.449 8.671125,3.567 C8.637125,3.685 8.540125,3.944 8.380125,4.341 C8.220125,4.738 7.974125,5.238 7.642125,5.839 C7.309125,6.44 6.916125,7.001 6.461125,7.521 C6.006125,8.042 5.491125,8.52 4.915125,8.957 C4.338125,9.393 3.760125,9.748 3.179125,10.023 C2.598125,10.297 1.988125,10.52 1.348125,10.689 C1.138125,10.664 1.104125,10.604 1.247125,10.511 C1.786125,10.291 2.318125,10.039 2.844125,9.755 C3.370125,9.472 3.910125,9.106 4.466125,8.657 C5.022125,8.208 5.503125,7.723 5.911125,7.204 C6.319125,6.683 6.660125,6.145 6.934125,5.591 C7.207125,5.037 7.394125,4.571 7.496125,4.195 C7.597125,3.819 7.656125,3.419 7.673125,2.996 C6.848125,2.971 6.120125,3 5.489125,3.085 C4.858125,3.17 4.163125,3.288 3.406125,3.44 C2.649125,3.592 2.211125,3.723 2.093125,3.834 C1.975125,3.945 1.868125,4.012 1.771125,4.037 C1.674125,4.062 1.583125,4.058 1.500125,4.024 C1.417125,3.99 1.264125,3.946 1.045125,3.89 C0.826125,3.835 0.651125,3.728 0.521125,3.567 C0.391125,3.406 0.225125,3.161 0.022125,2.831 C-0.036875,2.637 0.022125,2.573 0.199125,2.64 C0.637125,2.97 1.020125,3.148 1.348125,3.173 C1.676125,3.198 2.265125,3.156 3.116125,3.046 C3.966125,2.936 4.721125,2.839 5.382125,2.754 C6.042125,2.669 6.585125,2.602 7.010125,2.551 C7.435125,2.5 7.677125,2.435 7.736125,2.355 C7.795125,2.274 7.845125,2.194 7.887125,2.113 C7.929125,2.033 8.049125,2.05 8.247125,2.164 Z M43.203125,7.478 L37.320125,7.478 L37.320125,10.588 L43.190125,10.588 C43.198125,9.817 43.203125,8.781 43.203125,7.478 Z M72.118125,7.757 L69.114125,7.757 L69.114125,8.874 L72.118125,8.874 L72.118125,7.757 Z M81.160125,0.025 C81.900125,0.206 82.271125,0.386 82.271125,0.567 C82.271125,0.662 82.152125,0.777 81.917125,0.915 C81.917125,1.595 81.907125,2.11 81.892125,2.463 L83.808125,2.463 C83.808125,2.124 83.800125,1.329 83.783125,0.076 C84.533125,0.254 84.906125,0.435 84.906125,0.622 C84.857125,0.766 84.742125,0.88 84.566125,0.965 L84.541125,2.425 L84.541125,2.463 L86.309125,2.463 L86.688125,1.917 L86.852125,2.031 C87.297125,2.344 87.520125,2.57 87.520125,2.71 L87.520125,2.723 C87.454125,2.855 87.307125,2.946 87.079125,2.996 C87.063125,3.57 87.054125,4.089 87.054125,4.554 C87.054125,5.499 87.068125,6.639 87.093125,7.973 L87.673125,7.973 L88.165125,7.275 L88.821125,7.783 C89.032125,7.943 89.137125,8.068 89.137125,8.159 C89.137125,8.323 89.032125,8.405 88.821125,8.405 L77.421125,8.405 L77.118125,7.973 L78.671125,7.973 C78.681125,7.156 78.685125,6.394 78.685125,5.686 C78.685125,4.548 78.671125,3.292 78.646125,1.917 L79.746125,2.463 L81.172125,2.463 L81.160125,0.038 L81.160125,0.025 Z M81.169125,5.472 L79.415125,5.472 C79.415125,6.42 79.419125,7.253 79.427125,7.973 L81.157125,7.973 C81.165125,7.296 81.169125,6.462 81.169125,5.472 Z M83.808125,5.472 L81.890125,5.472 L81.927125,7.973 L83.796125,7.973 L83.808125,5.472 Z M86.345125,5.472 L84.540125,5.472 L84.565125,7.948 L84.565125,7.973 L86.319125,7.973 C86.337125,6.534 86.345125,5.7 86.345125,5.472 Z M12.461125,1.549 C12.747125,1.566 12.972125,1.6 13.136125,1.651 C13.300125,1.702 13.466125,1.769 13.635125,1.854 C13.804125,1.939 13.938125,2.01 14.039125,2.07 C14.140125,2.13 14.186125,2.199 14.178125,2.28 C14.170125,2.36 14.134125,2.409 14.071125,2.426 C14.008125,2.443 13.941125,2.509 13.869125,2.622 C13.797125,2.737 13.749125,3.153 13.723125,3.873 C13.698125,4.593 13.702125,5.191 13.736125,5.669 C13.770125,6.148 13.799125,6.539 13.824125,6.844 C13.849125,7.149 13.765125,7.388 13.572125,7.562 C13.378125,7.735 13.235125,7.802 13.143125,7.765 C13.050125,7.726 13.000125,7.613 12.992125,7.421 C12.983125,7.232 12.992125,7.028 13.017125,6.812 C13.042125,6.597 13.055125,6.249 13.055125,5.771 L13.055125,3.874 L13.055125,3.874 C13.055125,3.087 13.042125,2.63 13.017125,2.503 C12.992125,2.376 12.943125,2.236 12.872125,2.084 C12.800125,1.932 12.655125,1.834 12.436125,1.792 C12.327125,1.714 12.335125,1.634 12.461125,1.549 Z M72.118125,6.259 L69.114125,6.259 L69.114125,7.402 L72.118125,7.402 L72.118125,6.259 Z M43.177125,4.088 L37.332125,4.088 C37.324125,4.891 37.319125,5.916 37.319125,7.16 L43.202125,7.16 L43.177125,4.088 Z M32.013125,5.49 C32.409125,5.765 32.543125,5.947 32.417125,6.037 C32.291125,6.125 31.973125,6.136 31.464125,6.068 C30.955125,6 30.170125,5.979 29.110125,6.005 C28.050125,6.03 27.052125,6.11 26.118125,6.246 C25.183125,6.382 24.672125,6.509 24.584125,6.627 C24.496125,6.745 24.396125,6.807 24.288125,6.811 C24.178125,6.816 24.071125,6.784 23.966125,6.716 C23.861125,6.649 23.691125,6.553 23.455125,6.43 C23.219125,6.308 22.992125,6.009 22.773125,5.535 C22.779125,5.391 22.855125,5.345 22.998125,5.395 C23.175125,5.632 23.425125,5.774 23.749125,5.82 C24.073125,5.867 24.782125,5.852 25.876125,5.776 C26.970125,5.7 28.003125,5.636 28.976125,5.586 C29.949125,5.536 30.478125,5.499 30.567125,5.479 C30.655125,5.458 30.762125,5.415 30.889125,5.352 C31.015125,5.288 31.135125,5.227 31.249125,5.167 C31.362125,5.107 31.617125,5.216 32.013125,5.49 Z M54.368125,3.847 C55.362125,4.304 56.026125,4.778 56.364125,5.269 C56.481125,5.438 56.540125,5.578 56.540125,5.688 C56.540125,5.815 56.474125,5.891 56.339125,5.917 C56.288125,5.926 56.237125,5.93 56.187125,5.93 C55.960125,5.93 55.757125,5.79 55.582125,5.511 L55.215125,4.927 C55.065125,4.69 54.756125,4.423 54.295125,4.127 L54.368125,3.847 Z M86.320125,2.895 L84.541125,2.895 L84.541125,5.053 L86.345125,5.053 C86.345125,5.019 86.337125,4.3 86.320125,2.895 Z M81.169125,2.895 L79.427125,2.895 C79.419125,3.597 79.415125,4.316 79.415125,5.053 L81.183125,5.053 C81.183125,4.232 81.177125,3.513 81.169125,2.895 Z M83.808125,2.895 L81.890125,2.895 L81.890125,5.053 L83.808125,5.053 L83.808125,2.895 Z M71.374125,3.072 L69.114125,3.072 L69.114125,4.329 L71.374125,4.329 C71.390125,4.084 71.399125,3.855 71.399125,3.643 C71.399125,3.431 71.389125,3.241 71.374125,3.072 Z M68.343125,3.072 L65.958125,3.072 L65.958125,4.328 L65.958125,4.328 L68.343125,4.328 L68.343125,3.072 Z M54.911125,0.825 C55.720125,1.197 56.376125,1.676 56.882125,2.26 L56.907125,2.273 C57.014125,2.451 57.065125,2.582 57.057125,2.667 C57.024125,2.896 56.897125,3.01 56.678125,3.01 C56.408125,3.01 56.233125,2.917 56.149125,2.731 L55.756125,1.893 C55.639125,1.639 55.315125,1.369 54.785125,1.08 L54.911125,0.825 Z"/>
	</g>
</svg>

<svg xmlns="http://www.w3.org/2000/svg" width="90" height="12"><path fill="#000" fill-rule="nonzero" d="m44.894 0 .644.508c.455.339.455.508 0 .508h-5.517c-.31.931-.804 1.854-1.477 2.768h4.621l.392-.546.164.127c.438.339.661.559.67.66.007.076-.06.144-.203.203a1.446 1.446 0 0 1-.24.102 982.598 982.598 0 0 0 0 6.868c.008.44-.055.694-.189.762h-.013a.49.49 0 0 1-.177.025c-.26 0-.392-.156-.392-.47l.013-.597v-.013h-5.858v.229c0 .448-.076.702-.227.762h-.013a.405.405 0 0 1-.15.025c-.262 0-.388-.156-.38-.47a382.45 382.45 0 0 0-.013-8.214l1.086.546h.871c.387-.956.631-1.845.732-2.666a.439.439 0 0 0 .013-.102h-4.48l-.317-.317h9.948L44.894 0zM80.59 8.76c.682.144 1.002.317.96.521-.052.093-.194.194-.43.305-.858.939-2.032 1.718-3.522 2.336l-.252-.14c1.758-.932 2.84-1.939 3.244-3.022zM53.4.05c.276.213.415.382.415.51-.025.11-.127.187-.303.229-.354.102-.943.195-1.768.28 0 1.163-.004 2.009-.014 2.535h.871l.492-.711.658.508c.21.16.314.285.314.375 0 .122-.105.184-.314.184h-2.02v.978c.943.584 1.646 1.278 2.11 2.082.101.169.145.296.138.381-.025.237-.139.355-.342.355-.36-.009-.627-.237-.795-.686l-.328-.952c-.15-.237-.412-.517-.783-.838V7.3c.002.898.008 2.176.014 3.833 0 .432-.059.682-.178.749a.29.29 0 0 1-.189.038c-.26-.034-.39-.19-.39-.47.007-1.523.011-3.165.011-4.926-.52 1.354-1.383 2.501-2.588 3.44l-.213-.165c1.631-1.676 2.541-3.622 2.727-5.84H48.5l-.303-.355h2.801c-.008-.511-.012-1.327-.012-2.45-.799.116-1.62.196-2.46.241l-.116-.241C51.103.816 52.765.448 53.398.05zm31.47 8.748c1.48.897 2.503 1.621 3.067 2.171.344.347.514.597.504.749-.008.127-.096.194-.264.203-.354-.076-.77-.372-1.25-.889l-.82-.889a6.858 6.858 0 0 0-1.14-.958l-.312-.198.214-.189zM57.726.05c.74.178 1.111.359 1.111.546-.01.085-.123.194-.342.33v5.992l.656-.165.316-.787.744.33c.277.127.416.232.416.317 0 .152-.096.254-.289.305l-1.844.444v3.758c0 .533-.123.8-.365.8h-.012c-.262 0-.39-.156-.39-.47l.011-3.91-3.408.864-.252-.381 3.66-.927L57.727.05zM68.343.038c.725.182 1.09.363 1.1.545 0 .096-.109.212-.328.351v.26h3.85l.492-.711.656.508c.23.185.342.324.342.418 0 .094-.113.141-.342.141h-4.998v1.155h2.21l.378-.546c.471.339.748.6.832.784-.059.15-.209.251-.453.301-.01.059-.014.13-.014.213l.04 1.267c0 .288-.103.457-.306.508h-.024c-.27 0-.404-.182-.404-.546h-2.26v1.181l3.004.038.354-.559c.496.33.773.597.834.8-.01.093-.16.19-.455.292l-.014.965h.594l.492-.724.645.508c.22.178.328.313.328.406 0 .093-.109.148-.328.165h-1.73v1.587c0 .448-.084.682-.252.698-.346-.017-.518-.212-.518-.584 0-.067.004-.14.014-.216h-2.967v1.371c0 .804-.346 1.235-1.035 1.295-.094-.423-.662-.753-1.705-.99 0-.152.03-.245.088-.279l1.39.254c.067.009.126.013.177.013.21 0 .314-.098.314-.292V9.244h-3.926l-.314-.381 4.24.013v-1.13l-5.44.013-.304-.368 5.744.013V6.249l-3.926.013-.314-.368 4.24.013V4.726l-2.359-.038.012.089c0 .279-.092.436-.277.47a.552.552 0 0 1-.113.013c-.236 0-.354-.174-.354-.521l.025-1.231c0-.517-.014-.969-.039-1.358l1.111.546h2.008V1.541h-5.05l-.304-.355 5.34.007V.038zm-51.45.673c.345.034.61.085.795.152.185.067.36.174.524.317.164.143.288.256.373.337.084.08.122.162.113.247-.009.085-.063.146-.164.185-.1.037-.185.266-.252.686-.067.418-.114.931-.139 1.535a48.04 48.04 0 0 0-.038 1.975c0 .711-.149 1.354-.448 1.93a5.553 5.553 0 0 1-1.167 1.529c-.48.445-.949.792-1.408 1.041-.459.25-1.012.502-1.66.756-.202.06-.249.017-.139-.127.64-.339 1.17-.66 1.591-.965a7.287 7.287 0 0 0 1.2-1.104c.378-.432.68-.901.902-1.409.223-.508.36-1.104.41-1.79.051-.686.082-1.527.095-2.526.013-.999.015-1.574.006-1.727a1.437 1.437 0 0 0-.1-.451c-.06-.147-.249-.269-.569-.361-.11-.145-.086-.221.075-.23zM8.247 2.164c.197.115.391.252.581.413l.436.368c.102.085.116.169.044.254-.07.085-.187.138-.347.158-.16.021-.257.092-.29.21-.034.118-.13.377-.29.774-.16.397-.407.897-.739 1.498a9.645 9.645 0 0 1-1.18 1.682c-.456.521-.97.999-1.547 1.436a9.949 9.949 0 0 1-1.736 1.066 10.67 10.67 0 0 1-1.83.666c-.21-.025-.245-.085-.102-.178.54-.22 1.071-.472 1.597-.756a10.6 10.6 0 0 0 1.622-1.098 9.097 9.097 0 0 0 2.468-3.066c.273-.554.46-1.02.562-1.396.101-.376.16-.776.177-1.199a13.484 13.484 0 0 0-2.184.089c-.63.085-1.326.203-2.083.355-.757.152-1.195.283-1.313.394a.784.784 0 0 1-.322.203.422.422 0 0 1-.27-.013 4.132 4.132 0 0 0-.456-.134.947.947 0 0 1-.524-.323 7.487 7.487 0 0 1-.499-.736c-.059-.194 0-.258.177-.191.438.33.821.508 1.15.533.327.025.916-.017 1.767-.127l2.266-.292c.66-.085 1.203-.152 1.628-.203.425-.051.667-.116.726-.196.06-.081.11-.161.151-.242.042-.08.162-.063.36.051zm34.956 5.314H37.32v3.11h5.87c.008-.771.013-1.807.013-3.11zm28.915.279h-3.004v1.117h3.004V7.757zM81.16.025c.74.181 1.111.361 1.111.542 0 .095-.119.21-.354.348 0 .68-.01 1.195-.025 1.548h1.916c0-.339-.008-1.134-.025-2.387.75.178 1.123.359 1.123.546-.049.144-.164.258-.34.343l-.025 1.46v.038h1.768l.38-.546.163.114c.445.313.668.539.668.679v.013c-.066.132-.213.223-.44.273a56.644 56.644 0 0 0-.026 1.558c0 .945.014 2.085.04 3.419h.58l.491-.698.656.508c.211.16.316.285.316.376 0 .164-.105.246-.316.246h-11.4l-.303-.432h1.553a186.584 186.584 0 0 0-.025-6.056l1.1.546h1.426L81.16.038V.025zm.01 5.447h-1.755c0 .948.004 1.781.012 2.501h1.73c.008-.677.012-1.511.012-2.501zm2.638 0H81.89l.037 2.501h1.87l.011-2.501zm2.537 0H84.54l.025 2.476v.025h1.754c.018-1.439.026-2.273.026-2.501zM12.461 1.549c.286.017.511.051.675.102.164.051.33.118.5.203.168.085.302.156.403.216.101.06.147.129.14.21-.009.08-.045.129-.108.146-.063.017-.13.083-.202.196-.072.115-.12.531-.146 1.251-.025.72-.02 1.318.013 1.796.034.479.063.87.088 1.175.025.305-.059.544-.252.718-.194.173-.337.24-.429.203-.093-.039-.143-.152-.15-.344a3.77 3.77 0 0 1 .024-.609c.025-.215.038-.563.038-1.041V3.874c0-.787-.013-1.244-.038-1.371a1.855 1.855 0 0 0-.145-.419c-.072-.152-.217-.25-.436-.292-.109-.078-.1-.158.025-.243zm59.657 4.71h-3.004v1.143h3.004V6.259zm-28.94-2.171h-5.846c-.008.803-.013 1.828-.013 3.072h5.883l-.025-3.072zM32.012 5.49c.396.275.53.457.404.547-.126.088-.444.099-.953.031-.509-.068-1.294-.089-2.354-.063-1.06.025-2.058.105-2.992.241-.935.136-1.446.263-1.534.381-.088.118-.188.18-.296.184a.539.539 0 0 1-.322-.095 7.317 7.317 0 0 0-.51-.286c-.237-.122-.464-.421-.683-.895.006-.144.082-.19.225-.14.177.237.427.379.751.425.324.047 1.033.032 2.127-.044 1.094-.076 2.127-.14 3.1-.19.973-.05 1.502-.087 1.591-.107.088-.021.195-.064.322-.127.126-.064.246-.125.36-.185.113-.06.368.049.764.323zm22.355-1.643c.994.457 1.658.931 1.996 1.422.117.169.176.309.176.419 0 .127-.066.203-.2.229a.875.875 0 0 1-.153.013c-.227 0-.43-.14-.605-.419l-.367-.584c-.15-.237-.459-.504-.92-.8l.073-.28zm31.952-.952h-1.779v2.158h1.804l-.025-2.158zm-5.15 0h-1.743c-.008.702-.012 1.421-.012 2.158h1.768c0-.821-.006-1.54-.014-2.158zm2.638 0H81.89v2.158h1.918V2.895zm-12.434.177h-2.26v1.257h2.26c.016-.245.025-.474.025-.686 0-.212-.01-.402-.025-.571zm-3.03 0h-2.386v1.256h2.385V3.072zM54.91.825c.81.372 1.465.851 1.971 1.435l.025.013c.107.178.158.309.15.394-.033.229-.16.343-.379.343-.27 0-.445-.093-.529-.279l-.393-.838c-.117-.254-.44-.524-.97-.813l.125-.255z"/></svg>
